X: 1
T:F Schottis \#1
R:Schottische
O:France
M:4/4
K:G
Bd cA B2 GB|Bd cA B2 GD|EF (G2 G)A BG\
|1 cB Ac B2 GB :|2 cA FA G4::
ef ef e3f|ef ef d3e|ed (c2 c)B AB\
|1 cB Ac B2Ge :|2 cA FA G4 :|
